!!!OTL: Geusenlied.
!!!OTL-incipit: WILHELMUS VON NASSAUEN
!!!ARE: Europa, Mitteleuropa, Deutschland
!!!SCT: Z1143
!!!TXL: @@DE
!!!YEM: Copyright 1995, estate of Helmut Schaffrath.
**kern	**text
*ICvox	*
*M2/4	*
*k[f#]	*
*G:	*
!LO:TX:a:t=(Vom Jahr 1582, wo es nach der Limburger Chronik durch ganʒ Deutſchland geſungen ward.)	!
{8d	Wil-
=1	=1
16gL	-hel-
16f#	.
16g	.
16a	.
8gJ	.
8b/	-mus
=2	=2
4a	von
8.dd/	Naſ-
16cc/	.
=3	=3
4b/	-ſau-
8a}	-en
{8dd/	bin
=4	=4
(>4cc/	ich
8b/)	.
8b/	von
=5	=5
8aL	deut-
8gJ	.
8aL	-ſchem
8bJ	.
=6	=6
4g	Blut,
8r}	.
{8d	dem
=7	=7
16gL	Va-
16f#	.
16g	.
16a	.
8gJ	.
8b/	-ter-
=8	=8
4a	-land
8.dd/L	ge-
16ccJ	.
=9	=9
4b/	-treu-
8a}	-e
{8dd/	ge-
=10	=10
4cc/	-blie-
8b/	-ben
8b/	bis
=11	=11
8aL	in
8gJ	.
8aL	den
8bJ	.
=12	=12
4g	Tod.
8r}	.
{8g	Ein
=13	=13
8b/L	Prinʒ
8aJ	.
8b/	von
8cc/	U-
=14	=14
8.dd/	-ra-
16ee/	-ni-
8dd/}	-en
{8cc/	bin
=15	=15
8bL	ich
8aJ	.
8b/	un-
8cc/	-ver-
=16	=16
8.dd/L	-ſehrt,
16ee	.
8ddJ}	.
{8cc/	den
=17	=17
8cc/	Kö-
8b/	-nig
8a	von
8a	His-
=18	=18
8.g	-pa-
16a	-ni-
8b/}	-en
{8cc/	hab'
=19	=19
8dd/	ich
8dd/	all-
16ee/L	-ʒeit
16ddJ	.
16cc/L	ge-
16bJ	.
=20	=20
4a	-ehrt,
8r}	.
{8d	den
=21	=21
16gL	Kö-
16f#	.
16g	.
16a	.
8gJ	.
8b/	-nig
=22	=22
4a	von
8.dd/L	His-
16ccJ	.
=23	=23
8b/	-pa-
8b/	-ni-
8a}	-en
{8dd/	hab'
=24	=24
8ddqq	.
(>4cc/	ich
8b/)	.
8b/	all-
=25	=25
8aL	-ʒeit
8gJ	.
8aL	ge-
8bJ	.
=26	=26
4.g}	-ehrt.
==	==
!!!AGN: Vaterland und Wehr
!!!ONB: ESAC (Essen Associative Code) Database: ZUCCAL
!!!AMT: simple duple
!!!AIN: vox
!!!EED: Helmut Schaffrath
!!!EEV: 1.0
!!!RDF**kern: >= above
!!!GTL: IV. Vaterland und Wehr.
!!!URL-scan: https://www.digitale-sammlungen.de/de/view/bsb11160573?page=317
!!!ENC: Anna Maria Matuszewska
!!!EEV: 2025/02/05
*-	*-
